svgs/sharp-regular/arrow-up-triangle-square.svg

<svg xmlns="http://www.w3.org/2000/svg" viewBox="0 0 576 512"><!--! Font Awesome Pro 6.6.0 by @fontawesome - https://fontawesome.com License - https://fontawesome.com/license (Commercial License) Copyright 2024 Fonticons, Inc. --><path d="M296 224l56.6 0 126.8 0 56.6 0-30-48L444.3 77.3 416 32 387.7 77.3 326 176l-30 48zm86.6-48L416 122.6 449.4 176l-66.8 0zM160 33.3l-17 17-96 96-17 17L64 197.1l17-17 55-55L136 456l0 24 48 0 0-24 0-330.9 55 55 17 17 33.9-33.9-17-17-96-96-17-17zM368 432l0-96 96 0 0 96-96 0zM320 288l0 48 0 96 0 48 48 0 96 0 48 0 0-48 0-96 0-48-48 0-96 0-48 0z"/></svg>

<svg xmlns="http://www.w3.org/2000/svg" viewBox="0 0 576 512"><!--! Font Awesome Pro 6.4.0 by @fontawesome - https://fontawesome.com License - https://fontawesome.com/license (Commercial License) Copyright 2023 Fonticons, Inc. --><path d="M296 224h56.6H479.4 536l-30-48L444.3 77.3 416 32 387.7 77.3 326 176l-30 48zm86.6-48L416 122.6 449.4 176H382.6zM160 33.3l-17 17-96 96-17 17L64 197.1l17-17 55-55V456v24h48V456 125.1l55 55 17 17 33.9-33.9-17-17-96-96-17-17zM368 432V336h96v96H368zM320 288v48 96 48h48 96 48V432 336 288H464 368 320z"/></svg>
